X: 5
T: Rory O'More
M: 6/8
B: NEFR #5
Z: 2012 John Chambers <jc:trillian.mit.edu>
R: jig
K: A
f |\
"A"eAA cAA | eAA "D"f3 | edc cBA | "E"GBB Bcd |\
"A"ecA cBA | ece "D"fed | "A"cde "E"efg | "A"a2A A2 ::
g |\
"F#m"agf fcc | "Bm"dcB "C#7"A2G | "F#m"FGA ABc | "E"Bee efg |\
"F#m"agf fcc | "Bm"dcB "C#7"A2G | "F#m"FGA ABc | "E"Bee e2 :|
